X:6295
T:Tom Billy's Jig
M:6/8
O:Ireland
R:Jig
Z:Richard Robinson 
%%TUNEURL: http://www.leeds.ac.uk/music/Info/RRTuneBk/gettune/0000093e.html
%%ID:0000093e
K:A mixolydian
a3 Ace | edB BAA | eaa ece | dcB Ace |\
a3 Ace | edB BAB | GBd g2e | fdB Ace :|
|:g3a3 | bag fed | faf gdB | BAB def |\
g3 a3  | bge egb |
age dBe |1 A2(3c/B/A/ Ace :|2 A2(3c/B/A/ aed \
|:Bcc edd | ecA dBA |
ABA dBA | ABA aed | \
Bcc edd | efe egb | age dBe \
|1 A2(3c/B/A/ aed :|2 A2(3c/B/A/ A2:|
